modules/hawcons-filled/icons/icon-109-document-file-xlsx.svg

<?xml version="1.0" encoding="UTF-8" standalone="no"?>
<svg width="32px" height="32px" viewBox="0 0 32 32" version="1.1" xmlns="http://www.w3.org/2000/svg" xmlns:xlink="http://www.w3.org/1999/xlink" xmlns:sketch="http://www.bohemiancoding.com/sketch/ns">
    <!-- Generator: Sketch 3.0.3 (7891) - http://www.bohemiancoding.com/sketch -->
    <title>icon 109 document file xlsx</title>
    <desc>Created with Sketch.</desc>
    <defs></defs>
    <g id="Page-1" stroke="none" stroke-width="1" fill="none" fill-rule="evenodd" sketch:type="MSPage">
        <g id="icon-109-document-file-xlsx" sketch:type="MSArtboardGroup" fill="#929292">
            <path d="M19,26 L19,28.0025781 C19,29.1090746 18.1057238,30 17.0025781,30 L1.99742191,30 C0.890925393,30 0,29.1012878 0,27.9926701 L0,5.00732994 C0,3.89833832 0.899249601,3 2.0085302,3 L12,3 L12,9.00189865 C12,10.1132936 12.8980806,11 14.0059191,11 L19,11 L19,13 L6.00684834,13 C4.34621185,13 3,14.3422643 3,15.9987856 L3,23.0012144 C3,24.6573979 4.33599155,26 6.00684834,26 L19,26 L19,26 L19,26 Z M13,3 L13,8.99707067 C13,9.55097324 13.4509752,10 13.990778,10 L19,10 L13,3 L13,3 Z M6.00732994,14 C4.89871223,14 4,14.9001762 4,15.992017 L4,23.007983 C4,24.1081436 4.89833832,25 6.00732994,25 L28.9926701,25 C30.1012878,25 31,24.0998238 31,23.007983 L31,15.992017 C31,14.8918564 30.1016617,14 28.9926701,14 L6.00732994,14 L6.00732994,14 Z M8,19.5 L6,16 L7,16 L8.5,18.625 L10,16 L11,16 L9,19.5 L11,23 L10,23 L8.5,20.375 L7,23 L6,23 L8,19.5 L8,19.5 Z M17,22 L17,23 L12,23 L12,16 L13,16 L13,22 L17,22 L17,22 Z M20.0048815,16 C18.897616,16 18,16.8877296 18,18 C18,19.1045695 18.8877296,20 20,20 L20.9906311,20 C21.5480902,20 22,20.4438648 22,21 C22,21.5522847 21.5573397,22 21.0010434,22 L19.9989566,22 C19.4472481,22 19,21.543716 19,21.0044713 L19,20.9931641 L18,20.9931641 L18,20.998921 C18,22.1040864 18.8938998,23 20.0048815,23 L20.9951185,23 C22.102384,23 23,22.1122704 23,21 C23,19.8954305 22.1122704,19 21,19 L20.0093689,19 C19.4519098,19 19,18.5561352 19,18 C19,17.4477153 19.4426603,17 19.9989566,17 L21.0010434,17 C21.5527519,17 22,17.453186 22,18 L23,18 C23,16.8954305 22.1061002,16 20.9951185,16 L20.0048815,16 L20.0048815,16 Z M26,19.5 L24,16 L25,16 L26.5,18.625 L28,16 L29,16 L27,19.5 L29,23 L28,23 L26.5,20.375 L25,23 L24,23 L26,19.5 L26,19.5 Z" id="document-file-xlsx" sketch:type="MSShapeGroup"></path>
        </g>
    </g>
</svg>

<svg width="32" height="32" xmlns="http://www.w3.org/2000/svg"><path d="M19 26v2.003A1.995 1.995 0 0 1 17.003 30H1.997A2 2 0 0 1 0 27.993V5.007C0 3.898.9 3 2.009 3H12v6.002c0 1.111.898 1.998 2.006 1.998H19v2H6.007A3.003 3.003 0 0 0 3 15.999V23A2.996 2.996 0 0 0 6.007 26H19zM13 3v5.997c0 .554.451 1.003.99 1.003H19l-6-7zM6.007 14C4.9 14 4 14.9 4 15.992v7.016A2 2 0 0 0 6.007 25h22.986C30.1 25 31 24.1 31 23.008v-7.016A2 2 0 0 0 28.993 14H6.007zM8 19.5L6 16h1l1.5 2.625L10 16h1l-2 3.5 2 3.5h-1l-1.5-2.625L7 23H6l2-3.5zm9 2.5v1h-5v-7h1v6h4zm3.005-6A1.998 1.998 0 0 0 18 18c0 1.105.888 2 2 2h.99c.558 0 1.01.444 1.01 1 0 .552-.443 1-.999 1h-1.002c-.552 0-.999-.456-.999-.996v-.01h-1v.005A2 2 0 0 0 20.005 23h.99A1.998 1.998 0 0 0 23 21c0-1.105-.888-2-2-2h-.99c-.558 0-1.01-.444-1.01-1 0-.552.443-1 .999-1h1.002c.552 0 .999.453.999 1h1a2 2 0 0 0-2.005-2h-.99zM26 19.5L24 16h1l1.5 2.625L28 16h1l-2 3.5 2 3.5h-1l-1.5-2.625L25 23h-1l2-3.5z" fill="#929292" fill-rule="evenodd"/></svg>
